tela-icon-theme/src/symbolic/status/bluetooth-disabled-symbolic.svg

<?xml version="1.0" encoding="UTF-8" standalone="no"?>
<svg
   xmlns:dc="http://purl.org/dc/elements/1.1/"
   xmlns:cc="http://creativecommons.org/ns#"
   xmlns:rdf="http://www.w3.org/1999/02/22-rdf-syntax-ns#"
   xmlns:svg="http://www.w3.org/2000/svg"
   xmlns="http://www.w3.org/2000/svg"
   height="16"
   width="16"
   version="1.1"
   id="svg6">
  <metadata
     id="metadata12">
    <rdf:RDF>
      <cc:Work
         rdf:about="">
        <dc:format>image/svg+xml</dc:format>
        <dc:type
           rdf:resource="http://purl.org/dc/dcmitype/StillImage" />
        <dc:title></dc:title>
      </cc:Work>
    </rdf:RDF>
  </metadata>
  <defs
     id="defs10" />
  <path
     style="color:#bebebe;overflow:visible;opacity:0.5;fill:#5d656b;marker:none"
     d="M 2.3515625,0.7363281 1.4121094,1.6777344 14.955078,15.220703 15.894531,14.279297 9.267578,7.652344 11.6875,5.53125 c 0.106935,-0.1017801 0.18279,-0.2318176 0.21875,-0.375 0.04605,-0.1421978 0.04605,-0.2953022 0,-0.4375 C 11.87029,4.5755676 11.794435,4.4455301 11.6875,4.34375 L 8.15625,1.1875 C 7.95725,1.0275 7.729,1 7.5,1 7.223,1 7,1.223 7,1.5 V 5.3847656 Z M 8,3.0625 10.09375,4.9375 8.195312,6.580078 8,6.384766 Z M 6.484375,8.068359 4.3125,9.96875 c -0.310445,0.276247 -0.3384165,0.751761 -0.0625,1.0625 0.273,0.313 0.71825,0.36675 1.03125,0.09375 l 1.720703,-1.5 V 14.5 c 0,0.277 0.222,0.5 0.5,0.5 0.282,0 0.436297,-0.0195 0.654297,-0.1875 L 10.833984,12.417969 9.769531,11.353516 8,12.9375 V 9.583984 Z"
     id="path2" />
</svg>

<svg width="16" height="16" version="1.1" xmlns="http://www.w3.org/2000/svg">
 <path d="m2.3516 0.73633-0.93945 0.94141 13.543 13.543 0.93945-0.94141-6.627-6.627 2.4199-2.1211c0.10694-0.10178 0.18279-0.23182 0.21875-0.375 0.04605-0.1422 0.04605-0.2953 0-0.4375-0.03596-0.14318-0.11182-0.27322-0.21875-0.375l-3.5312-3.1562c-0.199-0.16-0.42725-0.1875-0.65625-0.1875-0.277 0-0.5 0.223-0.5 0.5v3.8848zm5.6484 2.3262 2.0938 1.875-1.8984 1.6426-0.19531-0.19531zm-1.5156 5.0059-2.1719 1.9004c-0.31044 0.27625-0.33842 0.75176-0.0625 1.0625 0.273 0.313 0.71825 0.36675 1.0312 0.09375l1.7207-1.5v4.875c0 0.277 0.222 0.5 0.5 0.5 0.282 0 0.4363-0.0195 0.6543-0.1875l2.6777-2.3945-1.0645-1.0645-1.7695 1.584v-3.3535z" fill="#5d656b" opacity=".5"/>
</svg>
